X:1
T:kuce
T:Küçələrə su səpmişəm (2ci versiya) 
T:Azərbaycan xalq mahnısı
%%score { 1 | 2 }
L:1/8
Q:1/4=100
M:6/8
K:G
V:1 treble nm="Piano" snm="Pno."
V:2 bass 
V:1
 z2 a gfg | aag f{ga} g2 | f z a gfg | aag f{ga} g2 | z2 f e^de | ffe e/^d/ e2 | z2 a gfg | %7
 aag f{ga} g2 | f z a gfg | aag f{ga} g2 | f z g fef | ggf e{ga} f2 | e z f e^de | ffe e/^d/ed/e/ | %14
 ffe e/^d/ed/e/ | ffe e/^d/e z |] %16
V:2
 E,E/E/C E,E z | E,E/E/B, E,A,B, | [E,C]E/E/C E,E z | E,E/E/B, E,A,B, | [E,C]E/E/C E,E z | %5
 [E,C]E/E/C E,[A,C][G,B,] | E,D/E/C/E/ B,/E/A,/E/B,/E/ | [E,C]E/E/B, E,A,B, | %8
 [E,C]D/E/C/E/ B,/E/A,/E/B,/E/ | [E,C]E/E/B, E,A,B, | [E,C]D/E/C/E/ B,/E/A,/E/B,/E/ | %11
 E,E/E/B, E,B,A, | G,B,/E/A,/B,/ G,/B,/F,/B,/G,/B,/ | [E,A,C] z z [E,G,B,] z2 | %14
 [E,A,C] z z [E,G,B,] z2 | [E,A,C] z z [E,G,B,] z2 |] %16

